X: 23882
T: Llwydcoed
R: polka
M: 2/4
K: Gmajor
g>g fg|ed BG|E/F/G AB|GF G2|
gg/g/ fg|e/f/e/d/ B>G|E>E GA/B/|GF G2||
d>d B/c/d|ef gf/e/|d>d Bd/B/|e<d A2|
G>A Bd|ef gf/e/|d>c BB/A/|GF G2||

